public/images/poses-sm/Goddess.svg

<svg width="800" height="900" fill="none" xmlns="http://www.w3.org/2000/svg"><path d="M370.619 159.361c-4.234-15.7-23.426-50.847-58.32-22.894-22.151 17.742-57.372 41.001-81.979 32.676-24.607-8.329-9.829 50.693 24.053 56.394 33.883 5.701 67.499-12.302 79.06-39.552 11.557-27.252 37.186-26.624 37.186-26.624Z" fill="#000" stroke="#000" stroke-width="5" stroke-miterlimit="10"/><path d="M664.569 764.867c-3.489-3.076-9.64-3.49-19.888-5.949-10.253-2.461-45.315-8.814-48.392-16.401-3.075-7.591-6.133-26.77-.825-75.113 5.307-48.341 14.868-70.365 15.653-91.466.788-21.098-5.125-21.822-30.023-39.465-24.897-17.644-72.427-41.85-94.815-54.886-22.392-13.037-33.437-44.413-33.437-44.413s-28.786 3.109-53.342 3.109c-24.555 0-53.342-3.109-53.342-3.109s-11.048 31.376-33.435 44.413c-22.391 13.036-69.917 37.242-94.816 54.886-24.899 17.643-30.812 18.367-30.027 39.465.784 21.101 10.349 43.125 15.656 91.466 5.307 48.343 2.251 67.522-.825 75.113-3.075 7.587-38.138 13.94-48.39 16.401-10.253 2.459-16.405 2.873-19.889 5.949-3.486 3.075-3.977 4.767 3.606 6.118 7.583 1.345 67.545 4.627 80.051 1.713 12.507-2.91 9.884-22.566 13.553-55.428 3.671-32.859 8.345-83.657 7.034-104.148-1.314-20.491-6.85-28.902-6.85-28.902s83.953-23.068 106.712-33.931c22.759-10.865 60.962-37.212 60.962-37.212s38.204 26.347 60.963 37.215c22.76 10.862 106.714 33.931 106.714 33.931s-5.536 8.411-6.851 28.902c-1.313 20.491 3.364 71.289 7.032 104.148 3.672 32.863 1.049 52.518 13.556 55.428 12.505 2.912 72.469-.369 80.053-1.713 7.581-1.354 7.089-3.045 3.602-6.121Z" fill="#fff" stroke="#000" stroke-width="5" stroke-miterlimit="10"/><path d="M664.569 764.867c-3.489-3.076-9.64-3.49-19.888-5.949-10.253-2.461-45.315-8.814-48.392-16.401-3.075-7.591-6.133-26.77-.825-75.113 5.307-48.341 14.868-70.365 15.653-91.466.788-21.098-5.125-21.822-30.023-39.465-24.897-17.644-72.427-41.85-94.815-54.886-22.392-13.037-33.437-44.413-33.437-44.413s-28.786 3.109-53.342 3.109c-24.555 0-53.342-3.109-53.342-3.109s-11.048 31.376-33.435 44.413c-22.391 13.036-69.917 37.242-94.816 54.886-24.899 17.643-30.812 18.367-30.027 39.465.784 21.101 10.349 43.125 15.656 91.466 5.307 48.343 2.251 67.522-.825 75.113-3.075 7.587-38.138 13.94-48.39 16.401-10.253 2.459-16.405 2.873-19.889 5.949-3.486 3.075-3.977 4.767 3.606 6.118 7.583 1.345 67.545 4.627 80.051 1.713 12.507-2.91 9.884-22.566 13.553-55.428 3.671-32.859 8.345-83.657 7.034-104.148-1.314-20.491-6.85-28.902-6.85-28.902s83.953-23.068 106.712-33.931c22.759-10.865 60.962-37.212 60.962-37.212s38.204 26.347 60.963 37.215c22.76 10.862 106.714 33.931 106.714 33.931s-5.536 8.411-6.851 28.902c-1.313 20.491 3.364 71.289 7.032 104.148 3.672 32.863 1.049 52.518 13.556 55.428 12.505 2.912 72.469-.369 80.053-1.713 7.581-1.354 7.089-3.045 3.602-6.121Z" stroke="#000" stroke-width="5" stroke-miterlimit="10"/><path d="M576.874 210.453c-9.602-28.008-10.419-55.203-20.726-71.285-10.299-16.082-20.192-9.84-18.275.946 1.92 10.787 4.487 23.366 8.591 30.543 4.099 7.175 5.944 8.405 7.583 16.608 1.645 8.201 11.894 91.038 10.256 102.726-1.644 11.687-128.56-2.256-135.739-7.588-7.175-5.33-19.166-17.253-17.067-56.914H387.5c2.098 39.661-9.889 51.584-17.066 56.914-7.178 5.332-134.097 19.275-135.738 7.588-1.639-11.688 8.612-94.525 10.253-102.726 1.64-8.203 3.486-9.433 7.585-16.608 4.101-7.177 6.67-19.756 8.59-30.543 1.918-10.786-7.975-17.029-18.277-.946-10.302 16.082-11.124 43.277-20.724 71.285-9.603 28.007-23.924 102.399-19.64 107.368 4.283 4.967 7.711 5.181 60.919 5.795 36.462.423 62.167 1.783 74.732 1.735a8.002 8.002 0 0 1 7.87 6.397c1.609 7.751 4.054 21.125 5.36 45.795 2.049 38.753-5.207 59.631-5.207 59.631s24.584 4.24 53.342 3.112c28.756 1.126 53.339-3.112 53.339-3.112s-7.255-20.878-5.205-59.631c1.309-24.727 3.765-38.106 5.371-45.85a7.934 7.934 0 0 1 7.804-6.341c12.545.052 38.269-1.312 74.786-1.735 53.208-.615 56.637-.829 60.921-5.795 4.282-4.97-10.04-79.362-19.641-107.369Z" fill="#fff" stroke="#000" stroke-width="5" stroke-miterlimit="10"/><path d="M576.874 210.453c-9.602-28.008-10.419-55.203-20.726-71.285-10.299-16.082-20.192-9.84-18.275.946 1.92 10.787 4.487 23.366 8.591 30.543 4.099 7.175 5.944 8.405 7.583 16.608 1.645 8.201 11.894 91.038 10.256 102.726-1.644 11.687-128.56-2.256-135.739-7.588-7.175-5.33-19.166-17.253-17.067-56.914H387.5c2.098 39.661-9.889 51.584-17.066 56.914-7.178 5.332-134.097 19.275-135.738 7.588-1.639-11.688 8.612-94.525 10.253-102.726 1.64-8.203 3.486-9.433 7.585-16.608 4.101-7.177 6.67-19.756 8.59-30.543 1.918-10.786-7.975-17.029-18.277-.946-10.302 16.082-11.124 43.277-20.724 71.285-9.603 28.007-23.924 102.399-19.64 107.368 4.283 4.967 7.711 5.181 60.919 5.795 36.462.423 62.167 1.783 74.732 1.735a8.002 8.002 0 0 1 7.87 6.397c1.609 7.751 4.054 21.125 5.36 45.795 2.049 38.753-5.207 59.631-5.207 59.631s24.584 4.24 53.342 3.112c28.756 1.126 53.339-3.112 53.339-3.112s-7.255-20.878-5.205-59.631c1.309-24.727 3.765-38.106 5.371-45.85a7.934 7.934 0 0 1 7.804-6.341c12.545.052 38.269-1.312 74.786-1.735 53.208-.615 56.637-.829 60.921-5.795 4.282-4.97-10.04-79.362-19.641-107.369Z" stroke="#000" stroke-width="5" stroke-miterlimit="10"/><path d="M460.248 288.534c-11.997 13.552-40.599 20.012-60.745 20.012s-48.747-6.459-60.745-20.012" stroke="#000" stroke-width="5" stroke-miterlimit="10"/><path d="M377.903 214.638c-5.29-7.17-2.54-15.196-5.189-24.624-4.207-14.984 12.552-32.285 29.908-33.395 22.917-1.465 33.896 79.707 20.885 82.71-7.707 1.783-22.737-3.07-34.657-14.772-3.834-3.764-10.947-9.919-10.947-9.919Z" fill="#fff" stroke="#000" stroke-width="5" stroke-miterlimit="10"/><path d="M377.903 214.638c-5.29-7.17-2.54-15.196-5.189-24.624-4.207-14.984 12.552-32.285 29.908-33.395 22.917-1.465 33.896 79.707 20.885 82.71-7.707 1.783-22.737-3.07-34.657-14.772-3.834-3.764-10.947-9.919-10.947-9.919Z" stroke="#000" stroke-width="5" stroke-miterlimit="10"/><path d="M413.294 164.947c1.432 14.302-5.942 41.381-24.414 38.866-20.764-2.828-11.101 8.218-9.064 11.82 2.037 3.6 12.685 9.582 10.81 10.905-1.877 1.316-30.892-5.613-36.108-25.855-5.217-20.244-1.499-31.564 8.408-39.188 9.906-7.624 31.929-11.389 43.364-6.1 11.429 5.287 7.004 9.552 7.004 9.552Z" fill="#000" stroke="#000" stroke-width="5" stroke-miterlimit="10"/><path d="M592.753 720.344c-7.435 3.256-25.105 1.113-25.105 1.113M206.211 720.344c7.431 3.256 25.102 1.113 25.102 1.113M554.77 191.735c4.969-.271 13.967-1.895 15.62-4.774M229.738 181.901c5.22 4.646 15.573 3.698 15.573 3.698" stroke="#000" stroke-width="5" stroke-miterlimit="10"/></svg>

<svg width="800" height="900" viewBox="0 0 800 900" fill="none" xmlns="http://www.w3.org/2000/svg">
<path d="M370.619 159.361C366.385 143.661 347.193 108.514 312.299 136.467C290.148 154.209 254.927 177.468 230.32 169.143C205.713 160.814 220.491 219.836 254.373 225.537C288.256 231.238 321.872 213.235 333.433 185.985C344.99 158.733 370.619 159.361 370.619 159.361Z" fill="black" stroke="black" stroke-width="5" stroke-miterlimit="10"/>
<path d="M664.569 764.867C661.08 761.791 654.929 761.377 644.681 758.918C634.428 756.457 599.366 750.104 596.289 742.517C593.214 734.926 590.156 715.747 595.464 667.404C600.771 619.063 610.332 597.039 611.117 575.938C611.905 554.84 605.992 554.116 581.094 536.473C556.197 518.829 508.667 494.623 486.279 481.587C463.887 468.55 452.842 437.174 452.842 437.174C452.842 437.174 424.056 440.283 399.5 440.283C374.945 440.283 346.158 437.174 346.158 437.174C346.158 437.174 335.11 468.55 312.723 481.587C290.332 494.623 242.806 518.829 217.907 536.473C193.008 554.116 187.095 554.84 187.88 575.938C188.664 597.039 198.229 619.063 203.536 667.404C208.843 715.747 205.787 734.926 202.711 742.517C199.636 750.104 164.573 756.457 154.321 758.918C144.068 761.377 137.916 761.791 134.432 764.867C130.946 767.942 130.455 769.634 138.038 770.985C145.621 772.33 205.583 775.612 218.089 772.698C230.596 769.788 227.973 750.132 231.642 717.27C235.313 684.411 239.987 633.613 238.676 613.122C237.362 592.631 231.826 584.22 231.826 584.22C231.826 584.22 315.779 561.152 338.538 550.289C361.297 539.424 399.5 513.077 399.5 513.077C399.5 513.077 437.704 539.424 460.463 550.292C483.223 561.154 567.177 584.223 567.177 584.223C567.177 584.223 561.641 592.634 560.326 613.125C559.013 633.616 563.69 684.414 567.358 717.273C571.03 750.136 568.407 769.791 580.914 772.701C593.419 775.613 653.383 772.332 660.967 770.988C668.548 769.634 668.056 767.943 664.569 764.867Z" fill="white" stroke="black" stroke-width="5" stroke-miterlimit="10"/>
<path d="M664.569 764.867C661.08 761.791 654.929 761.377 644.681 758.918C634.428 756.457 599.366 750.104 596.289 742.517C593.214 734.926 590.156 715.747 595.464 667.404C600.771 619.063 610.332 597.039 611.117 575.938C611.905 554.84 605.992 554.116 581.094 536.473C556.197 518.829 508.667 494.623 486.279 481.587C463.887 468.55 452.842 437.174 452.842 437.174C452.842 437.174 424.056 440.283 399.5 440.283C374.945 440.283 346.158 437.174 346.158 437.174C346.158 437.174 335.11 468.55 312.723 481.587C290.332 494.623 242.806 518.829 217.907 536.473C193.008 554.116 187.095 554.84 187.88 575.938C188.664 597.039 198.229 619.063 203.536 667.404C208.843 715.747 205.787 734.926 202.711 742.517C199.636 750.104 164.573 756.457 154.321 758.918C144.068 761.377 137.916 761.791 134.432 764.867C130.946 767.942 130.455 769.634 138.038 770.985C145.621 772.33 205.583 775.612 218.089 772.698C230.596 769.788 227.973 750.132 231.642 717.27C235.313 684.411 239.987 633.613 238.676 613.122C237.362 592.631 231.826 584.22 231.826 584.22C231.826 584.22 315.779 561.152 338.538 550.289C361.297 539.424 399.5 513.077 399.5 513.077C399.5 513.077 437.704 539.424 460.463 550.292C483.223 561.154 567.177 584.223 567.177 584.223C567.177 584.223 561.641 592.634 560.326 613.125C559.013 633.616 563.69 684.414 567.358 717.273C571.03 750.136 568.407 769.791 580.914 772.701C593.419 775.613 653.383 772.332 660.967 770.988C668.548 769.634 668.056 767.943 664.569 764.867Z" stroke="black" stroke-width="5" stroke-miterlimit="10"/>
<path d="M576.874 210.453C567.272 182.445 566.455 155.25 556.148 139.168C545.849 123.086 535.956 129.328 537.873 140.114C539.793 150.901 542.36 163.48 546.464 170.657C550.563 177.832 552.408 179.062 554.047 187.265C555.692 195.466 565.941 278.303 564.303 289.991C562.659 301.678 435.743 287.735 428.564 282.403C421.389 277.073 409.398 265.15 411.497 225.489H399.499H387.5C389.598 265.15 377.611 277.073 370.434 282.403C363.256 287.735 236.337 301.678 234.696 289.991C233.057 278.303 243.308 195.466 244.949 187.265C246.589 179.062 248.435 177.832 252.534 170.657C256.635 163.48 259.204 150.901 261.124 140.114C263.042 129.328 253.149 123.085 242.847 139.168C232.545 155.25 231.723 182.445 222.123 210.453C212.52 238.46 198.199 312.852 202.483 317.821C206.766 322.788 210.194 323.002 263.402 323.616C299.864 324.039 325.569 325.399 338.134 325.351C341.952 325.337 345.231 328.011 346.004 331.748C347.613 339.499 350.058 352.873 351.364 377.543C353.413 416.296 346.157 437.174 346.157 437.174C346.157 437.174 370.741 441.414 399.499 440.286C428.255 441.412 452.838 437.174 452.838 437.174C452.838 437.174 445.583 416.296 447.633 377.543C448.942 352.816 451.398 339.437 453.004 331.693C453.77 327.99 457.024 325.335 460.808 325.352C473.353 325.404 499.077 324.04 535.594 323.617C588.802 323.002 592.231 322.788 596.515 317.822C600.797 312.852 586.475 238.46 576.874 210.453Z" fill="white" stroke="black" stroke-width="5" stroke-miterlimit="10"/>
<path d="M576.874 210.453C567.272 182.445 566.455 155.25 556.148 139.168C545.849 123.086 535.956 129.328 537.873 140.114C539.793 150.901 542.36 163.48 546.464 170.657C550.563 177.832 552.408 179.062 554.047 187.265C555.692 195.466 565.941 278.303 564.303 289.991C562.659 301.678 435.743 287.735 428.564 282.403C421.389 277.073 409.398 265.15 411.497 225.489H399.499H387.5C389.598 265.15 377.611 277.073 370.434 282.403C363.256 287.735 236.337 301.678 234.696 289.991C233.057 278.303 243.308 195.466 244.949 187.265C246.589 179.062 248.435 177.832 252.534 170.657C256.635 163.48 259.204 150.901 261.124 140.114C263.042 129.328 253.149 123.085 242.847 139.168C232.545 155.25 231.723 182.445 222.123 210.453C212.52 238.46 198.199 312.852 202.483 317.821C206.766 322.788 210.194 323.002 263.402 323.616C299.864 324.039 325.569 325.399 338.134 325.351C341.952 325.337 345.231 328.011 346.004 331.748C347.613 339.499 350.058 352.873 351.364 377.543C353.413 416.296 346.157 437.174 346.157 437.174C346.157 437.174 370.741 441.414 399.499 440.286C428.255 441.412 452.838 437.174 452.838 437.174C452.838 437.174 445.583 416.296 447.633 377.543C448.942 352.816 451.398 339.437 453.004 331.693C453.77 327.99 457.024 325.335 460.808 325.352C473.353 325.404 499.077 324.04 535.594 323.617C588.802 323.002 592.231 322.788 596.515 317.822C600.797 312.852 586.475 238.46 576.874 210.453Z" stroke="black" stroke-width="5" stroke-miterlimit="10"/>
<path d="M460.248 288.534C448.251 302.086 419.649 308.546 399.503 308.546C379.357 308.546 350.756 302.087 338.758 288.534" stroke="black" stroke-width="5" stroke-miterlimit="10"/>
<path d="M377.903 214.638C372.613 207.468 375.363 199.442 372.714 190.014C368.507 175.03 385.266 157.729 402.622 156.619C425.539 155.154 436.518 236.326 423.507 239.329C415.8 241.112 400.77 236.259 388.85 224.557C385.016 220.793 377.903 214.638 377.903 214.638Z" fill="white" stroke="black" stroke-width="5" stroke-miterlimit="10"/>
<path d="M377.903 214.638C372.613 207.468 375.363 199.442 372.714 190.014C368.507 175.03 385.266 157.729 402.622 156.619C425.539 155.154 436.518 236.326 423.507 239.329C415.8 241.112 400.77 236.259 388.85 224.557C385.016 220.793 377.903 214.638 377.903 214.638Z" stroke="black" stroke-width="5" stroke-miterlimit="10"/>
<path d="M413.294 164.947C414.726 179.249 407.352 206.328 388.88 203.813C368.116 200.985 377.779 212.031 379.816 215.633C381.853 219.233 392.501 225.215 390.626 226.538C388.749 227.854 359.734 220.925 354.518 200.683C349.301 180.439 353.019 169.119 362.926 161.495C372.832 153.871 394.855 150.106 406.29 155.395C417.719 160.682 413.294 164.947 413.294 164.947Z" fill="black" stroke="black" stroke-width="5" stroke-miterlimit="10"/>
<path d="M592.753 720.344C585.318 723.6 567.648 721.457 567.648 721.457" stroke="black" stroke-width="5" stroke-miterlimit="10"/>
<path d="M206.211 720.344C213.642 723.6 231.313 721.457 231.313 721.457" stroke="black" stroke-width="5" stroke-miterlimit="10"/>
<path d="M554.77 191.735C559.739 191.464 568.737 189.84 570.39 186.961" stroke="black" stroke-width="5" stroke-miterlimit="10"/>
<path d="M229.738 181.901C234.958 186.547 245.311 185.599 245.311 185.599" stroke="black" stroke-width="5" stroke-miterlimit="10"/>
</svg>
